!!!!SEGMENT: pl-kk--kk-i-6--038-001_anonim--missa-de-beata-virgine-maria-kyrie.krn
!!!cenid: 16xx:1021
!!!COM: Anonim
!!!COM-rismID: pe30004985
!!!CDT:
!!!CNT:
!!!OPR: Missa de Beata Virgine Maria
!!!OTL: Kyrie
!!!OMV: 001
!!!PDT:
!!!AGN: Sacred; Mass
!!!SMS-siglum: PL-Kk
!!!SMS-shelfmark: Kk.I.6
!!!SMS-shelfwork: 038-001 M
!!!SMS-variant:
!!!SMS-altvar:
!!!NIFC-rismSourceID: 1001136486
!!!NIFC-islandoraID: pl-kk:1634
!!!URL-pdf-islandora: https://repozytorium.nifc.pl/islandora/object/pl-kk%3A1634/datastream/PDF/view
!!!URL-scan: https://polish.musicsources.pl/pl/lokalizacje/galeria/rekopisy/6133 @EN{Scan on Polish Music Sources Website} @PL{Skany w portalu Dziedzictwo Muzyki Polskiej w otwartym dostępie}
!!!ONB-nifc: UWAGA: C (skan 0052-0053, s. 101-102), T (skan 0164-0165, s. 123-124), B (skan 0273-0274, s. 129-130) Części Mszy: 1. Kyrie, 2. Et in terra, 3. Patrem, 4. Sanctus, 5. Agnus Dei. Uwaga: zmienna liczba głosów w niektórych ustępach
!!!AIN: 1 empty 1 tenor 1 vox
!!!key:
**kern	**text	**kern	**text	**kern	**text
*part3	*part3	*part2	*part2	*part1	*part1
*staff3	*staff3	*staff2	*staff2	*staff1	*staff1
*Iempty	*	*Itenor	*	*Ivox	*
*I"Baſsus.	*	*I"Tenor.	*	*I"Cantus.	*
*I'B	*	*I'T	*	*I'S	*
*clefF4	*	*clefC4	*	*clefC4	*
*k[]	*	*k[]	*	*k[]	*
*d:	*	*d:	*	*d:	*
*M2/1	*	*M2/1	*	*M2/1	*
*met(C|)	*	*met(C|)	*	*met(C|)	*
=1-	=1-	=1-	=1-	=1-	=1-
!LO:TX:a:i:t=Miſsa De Beata M. Virgine. Baſso.	!	!LO:TX:a:i:t=Miſa de Beata Virgine Maria. Tenore 1. V.	!	!LO:TX:a:i:t=Miſa de Beata Virgine Maria. Tenore. z. H.	!
00r	.	1D	Kẏ-	0r	.
.	.	2F/	-ri-	.	.
.	.	2G/	-e	.	.
=2-	=2-	=2-	=2-	=2-	=2-
.	.	2.A/	e-	2r	.
.	.	.	.	2D/	Kÿ-
.	.	4G/	.	.	.
.	.	2A/	lei-	2F/	-ri-
!	!	!	!	!LO:TX:t=P:problem=kreska pseudotaktowa	!
.	.	2B\	.	2G/	e
=3-	=3-	=3-	=3-	=3-	=3-
00r	.	2c\	-son	0A	e-
*	*	*	*ij	*	*
.	.	2.e\	Kẏ-	.	.
.	.	4d\	-ri-	.	.
.	.	2c\	-e	.	.
=4-	=4-	=4-	=4-	=4-	=4-
.	.	2B\	e-	2G/	-lei-
!	!	!	!	!LO:TX:t=P:problem=kreska pseudotaktowa	!
.	.	2A/	.	2F/	.
.	.	2B\	.	4E/	.
.	.	.	.	4D/	.
.	.	2c\	.	4E/	.
!	!	!	!	!LO:TX:t=P:problem=kreska pseudotaktowa	!
.	.	.	.	4F/	.
=5-	=5-	=5-	=5-	=5-	=5-
!LO:TX:t=P:problem=kreska pseudotaktowa	!	!	!	!	!
0rD	.	2B\	.	2G/	.
*	*	*custos:G	*	*	*
!	!	!	!	!LO:TX:t=P:problem=kreska pseudotaktowa	!
.	.	1A	-lei-	2A/	.
.	.	.	.	1E	-son
!	!	!LO:LB:g=original	!	!	!
!	!	!LO:TX:b:t=P:problem=♯ below	!	!	!
.	.	2G#X/	.	.	.
=6-	=6-	=6-	=6-	=6-	=6-
1AA	Kÿ-	2A/	-son	2r	.
*	*	*	*Xij	*	*ij
!	!	!	!	!LO:TX:t=P:problem=kreska pseudotaktowa	!
.	.	1c	Kẏ-	2A/	Kÿ-
2C/	-ri-	.	.	2G/	-ri-
*	*	*	*	*custos:G	*
!	!	!	!	!LO:TX:t=P:problem=kreska pseudotaktowa	!
!	!	!	!	!LO:TX:b:t=P:problem=# below	!
2D/	-e	2A/	-ri-	2F#X/	-e
!	!	!	!	!LO:LB:g=original	!
=7-	=7-	=7-	=7-	=7-	=7-
!	!	!	!	!LO:TX:t=P:problem=kreska pseudotaktowa	!
1E	e-	2c\	-e	1G	e-
.	.	2.B\	e-	.	.
2D/	.	.	.	2Fny/	.
.	.	4A/	.	.	.
!	!	!	!	!LO:TX:t=P:problem=kreska pseudotaktowa	!
2C/	.	1A\	.	2E/	.
=8-	=8-	=8-	=8-	=8-	=8-
1BB	-lei-	.	.	1D	-lei-
.	.	2Gny/	-lei-	.	.
!LO:TX:t=P:global:problem=rozdzielacz słów	!	!	!	!	!
1AA,<	-ſon	1A	.	1E	-son
*	*	*	*	*	*Xij
=9-	=9-	=9-	=9-	=9-	=9-
2r	.	2D/	-ſon	0rA	.
*	*ij	*	*ij	*	*
2D/	Kÿ-	1A	Kẏ-	.	.
2F\	-ri-	.	.	.	.
2G\	-e	2B\	-ri-	.	.
=10-	=10-	=10-	=10-	=10-	=10-
0A	e-	2c\	-e	2r	.
.	.	2A/	e-	1c	Kẏ-
.	.	1c	.	.	.
!	!	!	!	!LO:TX:t=P:problem=kreska pseudotaktowa	!
.	.	.	.	2A/	-ri-
=11-	=11-	=11-	=11-	=11-	=11-
2.G\	.	4d\	.	4B\	-e
.	.	4c\	.	4c\	.
.	.	4B\	.	1d	.
*custos:E	*	*	*	*	*
4F\	.	4A/	.	.	.
!LO:LB:g=original	!	!	!	!	!
1E	-lei-	1G	.	.	.
!	!	!	!	!LO:TX:t=P:problem=kreska pseudotaktowa	!
!	!	!	!	!LO:TX:b:t=P:problem=♯ below	!
.	.	.	.	2c#X\	.
=12-	=12-	=12-	=12-	=12-	=12-
*	*	*custos:G	*	*	*
2D,</	-ſon	1A	.	2d\	.
!	!	!	!	!LO:TX:t=P:problem=kreska pseudotaktowa	!
2D/	Kÿ-	.	.	2A/	e-
!	!	!LO:LB:g=original	!	!	!
2GG/	-rie	4G/	.	4B-X\	-lei-
.	.	4F/	.	8A/L	.
.	.	.	.	8G/J	.
2BB-X/	e-	4F/	.	4F/	.
!	!	!	!	!LO:TX:t=P:problem=kreska pseudotaktowa	!
.	.	8E/L	.	4G/	.
.	.	8D/J	.	.	.
=13-	=13-	=13-	=13-	=13-	=13-
1AA	-lei-	1E	lei-	0A	.
2D,</	-ſon	2D/	-son	.	.
*	*Xij	*	*Xij	*	*
1D\	Kÿ-	2F/	Ky-	.	.
=14-	=14-	=14-	=14-	=14-	=14-
*	*	*	*	*custos:G	*
.	.	2D/	-ri-	0A	-ſon
!LO:TX:b:t=P:problem=♯ below	!	!	!	!	!
2C#X/	-ri-	2E/	-e	.	.
!	!	!LO:TX:b:t=P:problem=♯ below	!	!	!
2.D/	-e	2.F#X/	e-	.	.
4E\	.	4G/	.	.	.
!	!	!	!	!LO:LB:g=original	!
=15-	=15-	=15-	=15-	=15-	=15-
!LO:TX:b:t=P:problem=♯ below	!	!	!	!	!
2F#X\	e-	4A/	.	2r	.
.	.	4D/	.	.	.
*	*	*	*	*	*ij
!	!	!	!	!LO:TX:t=P:problem=kreska pseudotaktowa	!
2G\	.	1d	.	2G/	Kẏ-
1E	-lei-	.	.	1G	-ri-
.	.	2c\	.	.	.
=16-	=16-	=16-	=16-	=16-	=16-
!	!	!	!	!LO:TX:t=P:problem=kreska pseudotaktowa	!
1D,<	-ſon	2.d\	.	1A	-e
.	.	4c\	.	.	.
1GG	e-	1B	.	2.G/	e-
.	.	.	.	4F/	.
=17-	=17-	=17-	=17-	=17-	=17-
1AA	-lei-	1A	-lei-	1E	-lei-
*custos:AA	*	*	*	*	*
!	!	!	!	!LO:TX:a:t=P:problem=brak kreski taktowej	!
1Dl;;	-son	1Al;;	-son.	1D;	-son
*	*	*	*	*	*Xij
!LO:LB:g=original	!	!LO:LB:g=original	!	!	!
=18||	=18||	=18||	=18||	=18||	=18||
*M2/1	*	*M2/1	*	*M2/1	*
*met(C|)	*	*met(C|)	*	*met(C|)	*
00r	.	00rA	.	1A	CHri-
.	.	.	.	2A/	-ſte
!	!	!	!	!LO:TX:t=P:problem=kreska pseudotaktowa	!
.	.	.	.	2G/	e-
=19-	=19-	=19-	=19-	=19-	=19-
.	.	.	.	1B-X	-lei-
!	!	!	!	!LO:TX:t=P:global:problem=rozdzielacz słów	!
.	.	.	.	2A,</	-son
.	.	.	.	2.E/	Chr(i-
=20-	=20-	=20-	=20-	=20-	=20-
00r	.	0rA	.	.	.
.	.	.	.	4F/	.
*	*	*	*	*custos:D	*
!	!	!	!	!LO:TX:t=P:problem=kreska pseudotaktowa	!
.	.	.	.	2G/	-st)e
!	!	!	!	!LO:LB:g=original	!
.	.	.	.	4D/	e-
.	.	.	.	4E/	.
.	.	.	.	4F/	.
!	!	!	!	!LO:TX:t=P:problem=kreska pseudotaktowa	!
.	.	.	.	4G/	.
=21-	=21-	=21-	=21-	=21-	=21-
.	.	2r	.	4A/	.
.	.	.	.	4Bny\	.
.	.	2A/	CHri-	1c	.
.	.	2A/	-ſte	.	.
!	!	!	!	!LO:TX:t=P:problem=kreska pseudotaktowa	!
.	.	2G/	e-	2B\	.
=22-	=22-	=22-	=22-	=22-	=22-
!LO:TX:t=P:problem=kreska pseudotaktowa	!	!	!	!	!
1rD	.	1B-X	-lei-	1d	.
1AA	CHri-	2A/	-son	2e\	.
*	*	*	*ij	*	*
.	.	2.E/	CHri-	2.c\	.
=23-	=23-	=23-	=23-	=23-	=23-
2AA/	-ſte	.	.	.	.
.	.	4F/	.	8B\L	.
.	.	.	.	8A\J	.
2GG/	e-	2G/	-ſte	4B\	.
!	!	!	!	!LO:TX:t=P:problem=kreska pseudotaktowa	!
.	.	.	.	4c\	.
1BB-X	-lei-	2.F/	e-	2d\	-lei-
.	.	.	.	2D/	.
.	.	4G/	.	.	.
=24-	=24-	=24-	=24-	=24-	=24-
2AA,</	-son	2A/	.	1E	-ſon
*	*ij	*	*	*	*
2E\	CHri-	2.G/	.	.	.
2E\	-ſte	.	.	0r	.
.	.	4A/	.	.	.
2D/	e-	2.B-X\	.	.	.
=25-	=25-	=25-	=25-	=25-	=25-
*lig	*	*	*	*	*
1F	-lei-	.	.	.	.
.	.	4A/	.	.	.
.	.	1A	-lei-	.	.
1E	.	.	.	2r	.
*	*	*	*	*	*ij
.	.	2G#X/	.	2B\	Chri-
!	!	!LO:TX:b:t=P:problem=♯ below	!	!	!
*Xlig	*	*	*	*	*
=26-	=26-	=26-	=26-	=26-	=26-
*	*	*custos:d	*	*	*
2AA,</	-son	1A	-son	2.c\	-ste
*	*Xij	*	*Xij	*	*
2A\	chri-	.	.	.	.
*	*	*	*	*custos:c	*
!	!	!	!	!LO:TX:t=P:problem=kreska pseudotaktowa	!
.	.	.	.	4B\	e-
!	!	!LO:LB:g=original	!	!LO:LB:g=original	!
2A\	-ſte	0r	.	4c\	.
.	.	.	.	4d\	.
2G\	e-	.	.	2.e\	.
=27-	=27-	=27-	=27-	=27-	=27-
*lig	*	*	*	*	*
1B-X	-lei-	.	.	.	.
.	.	.	.	4d\	.
.	.	.	.	2.d\	.
1A	.	1r	.	.	.
!	!	!	!	!LO:TX:b:t=P:problem=♯ below	!
.	.	.	.	8c#X\L	.
.	.	.	.	8B\J	.
!	!	!	!	!LO:TX:t=P:problem=kreska pseudotaktowa	!
!	!	!	!	!LO:TX:b:t=P:problem=♯ below	!
.	.	.	.	2c#X\	-lei-
*Xlig	*	*	*	*	*
=28-	=28-	=28-	=28-	=28-	=28-
1D	-son.	2r	.	1d	.
.	.	1d	e-	.	.
*custos:D	*	*	*	*	*
1r	.	.	.	0A	-ſon
*	*	*	*	*	*Xij
!	!	!LO:TX:b:t=P:problem=♯ below	!	!	!
.	.	4c#X\	.	.	.
.	.	4Bny\	.	.	.
!LO:LB:g=original	!	!	!	!	!
=29-	=29-	=29-	=29-	=29-	=29-
!	!	!LO:TX:b:t=P:problem=♯ below	!	!	!
2r	.	2c#X\	-lei-	.	.
1D	e-	2d\	.	.	.
.	.	1A	-son	2r	.
!LO:TX:b:t=P:problem=♯ below	!	!	!	!	!
4C#X/	-lei-	.	.	1A\	Chr(i-
4BBny/	.	.	.	.	.
=30-	=30-	=30-	=30-	=30-	=30-
!LO:TX:b:t=P:problem=♯ below	!	!	!	!	!
2C#X/	.	0r	.	.	.
!	!	!	!	!LO:TX:t=P:problem=kreska pseudotaktowa	!
2D/	.	.	.	2A/	-st)e
2AA,</	-son	.	.	1.cny	e-
1A\	Chri-	.	.	.	.
=31-	=31-	=31-	=31-	=31-	=31-
.	.	1r	.	.	.
!LO:TX:b:t=P:problem=♯ below	!	!	!	!	!
4G#X\	.	.	.	4B\	.
!LO:TX:b:t=P:problem=♯ below	!	!	!	!LO:TX:t=P:problem=kreska pseudotaktowa	!
4F#X\	.	.	.	4A/	.
!LO:TX:b:t=P:problem=♯ below	!	!	!	!	!
2G#X\	.	2r	.	2B\	.
*	*	*	*ij	*	*
!	!	!	!	!LO:TX:t=P:problem=kreska pseudotaktowa	!
!	!	!	!	!LO:TX:b:t=P:problem=♯ below	!
2A\	.	1A\	e-	2c#X\	-lei-
=32-	=32-	=32-	=32-	=32-	=32-
2D/	.	.	.	2d\	-ſon
*	*	*	*	*	*ij
!	!	!	!	!LO:TX:t=P:problem=kreska pseudotaktowa	!
2Fny\	-ſte	2A/	-lei-	2D/	Chri-
*	*	*	*	*custos:A	*
1E	e-	2B\	.	1G	-ste
!	!	!LO:TX:b:t=P:problem=♯ below	!	!	!
.	.	2c#X\	.	.	.
!	!	!	!	!LO:LB:g=original	!
=33-	=33-	=33-	=33-	=33-	=33-
2D/	.	2d\	-son	1.A	e-
*	*	*	*Xij	*	*
1D	-lei-	1d	Chri-	.	.
2GG/	-son	2d\	-(ste)	2B-X\	.
=34-	=34-	=34-	=34-	=34-	=34-
*	*ij	*	*	*lig	*
1AA	Chri-	4cny\	[e]-	1A	-lei-
.	.	4B\	.	.	.
.	.	4A/	.	.	.
.	.	4Gny/	.	.	.
1BB-X	-ſte	2F/	.	1D	.
.	.	2G/	.	.	.
*	*	*	*	*Xlig	*
=35-	=35-	=35-	=35-	=35-	=35-
1AA	e-	1A	-lei-	1E	.
*	*	*custos:A	*	*	*
2D/	.	0A	-son	2D/	-son
*	*	*	*	*	*Xij
1D\	-lei-	.	.	1F/	Chr(i-
=36-	=36-	=36-	=36-	=36-	=36-
.	.	.	.	.	.
!LO:TX:b:t=P:problem=♯ below	!	!	!	!LO:TX:t=P:problem=kreska pseudotaktowa	!
2C#X/	.	.	.	2E/	-st)e
!	!	!LO:LB:g=original	!	!	!
0D	.	1A	Chri-	4D/	e-
.	.	.	.	4E/	.
.	.	.	.	4F/	.
!	!	!	!	!LO:TX:t=P:problem=kreska pseudotaktowa	!
.	.	.	.	4G/	.
=37-	=37-	=37-	=37-	=37-	=37-
.	.	2A/	-(st)e	1A	-lei-
.	.	1d	e-	.	.
*custos:D	*	*	*	*	*
[1AAl;;	-son	.	.	[1Al	-son.
*	*Xij	*	*	*	*
!	!	!LO:TX:b:t=P:problem=♯ below	!	!	!
.	.	4c#X\	-lei-	.	.
.	.	4B\	.	.	.
=38-	=38-	=38-	=38-	=38-	=38-
!	!	!LO:TX:b:t=P:problem=♯ below	!	!	!
0AA]	.	0c#Xl	-son.	0A]	.
!LO:LB:g=original	!	!	!	!LO:LB:g=original	!
=39||	=39||	=39||	=39||	=39||	=39||
*M2/1	*	*M2/1	*	*M2/1	*
*met(C|)	*	*met(C|)	*	*met(C|)	*
1r	.	1A	Kẏ-	00r	.
1D	Kÿ-	2A/	-ri-	.	.
.	.	2.d\	-e	.	.
=40-	=40-	=40-	=40-	=40-	=40-
1F	-ri-	.	.	.	.
.	.	4c\	.	.	.
.	.	2A/	.	.	.
1.G	-e	1.B	e-	.	.
=41-	=41-	=41-	=41-	=41-	=41-
!	!	!	!	!LO:TX:t=P:problem=kreska pseudotaktowa	!
.	.	.	.	1D	Kẏ-
!LO:TX:b:t=P:problem=♯ below	!	!	!	!	!
4F#X\	.	4A/	.	.	.
4E\	.	4G/	.	.	.
!LO:TX:b:t=P:problem=♯ below	!	!	!	!	!
2F#X\	.	2A/	.	2D/	-ri-
2G\	.	2B\	.	2.d\	-e
=42-	=42-	=42-	=42-	=42-	=42-
2D/	.	1A	-lei-	.	.
.	.	.	.	4c\	.
!	!	!	!	!LO:TX:t=P:problem=kreska pseudotaktowa	!
2Fny\	e-	.	.	2A/	.
*	*	*custos:A	*	*	*
1E	-lei-	1G	.	2B\	e-
!	!	!	!	!LO:TX:b:t=P:problem=♯ below	!
.	.	.	.	2c#X\	-lei-
!	!	!LO:LB:g=original	!	!	!
=43-	=43-	=43-	=43-	=43-	=43-
1D	-son	2A/	-son	0.d	-son
*	*ij	*	*ij	*	*
.	.	2A/	e-	.	.
2rG	.	2d\	-lei-	.	.
1G\	Kÿ-	4G/	.	.	.
.	.	4A/	.	.	.
=44-	=44-	=44-	=44-	=44-	=44-
.	.	4B\	.	.	.
.	.	4c\	.	.	.
2F\	-ri-	1d	.	.	.
2G\	-e	.	.	1r	.
!	!	!LO:TX:b:t=P:problem=♯ below	!	!	!
2A\	.	2c#X\	.	.	.
=45-	=45-	=45-	=45-	=45-	=45-
*	*	*	*	*	*ij
2.D/	.	2d\	-son	1A	Kẏ-
.	.	2D/	e-	.	.
*custos:C	*	*	*	*	*
4D/	e-	.	.	.	.
!LO:LB:g=original	!	!	!	!	!
2C/	.	2E/	.	1cny	-ri-
2AA/	.	2F/	.	.	.
=46-	=46-	=46-	=46-	=46-	=46-
1BB-X	-lei-	1D	-lei-	1.d	-e
1AA	-son	2E/	-son	.	.
*	*Xij	*	*	*	*
!	!	!	!	!LO:TX:t=P:problem=♯ above	!
.	.	2E/	e-	4c#X\	.
!	!	!	!	!LO:TX:t=P:problem=kreska pseudotaktowa	!
.	.	.	.	4B\	.
=47-	=47-	=47-	=47-	=47-	=47-
!	!	!	!	!LO:TX:t=P:problem=♯ above	!
2rBB	.	2A/	-lei-	2c#X\	.
!	!	!	!	!LO:TX:t=P:problem=kreska pseudotaktowa	!
1D	Kẏ-	4D/	.	2d\	.
.	.	4E/	.	.	.
.	.	4F/	.	2A/	e-
.	.	4G/	.	.	.
*	*	*	*	*custos:B	*
!	!	!	!	!LO:TX:t=P:problem=kreska pseudotaktowa	!
2C/	-rie	1A\	.	2cny\	.
!	!	!	!	!LO:PB:g=original	!
=48-	=48-	=48-	=48-	=48-	=48-
2D/	e-	.	.	1B	-lei-
!	!	!LO:TX:b:t=P:problem=♯ below	!	!	!
2E\	-lei-	2G#X/	.	.	.
*	*	*custos:E	*	*	*
0AA	-son	2A/	.	0.A	-son
!	!	!LO:PB:g=original	!	!	!
.	.	1E/	-son	.	.
*	*	*	*Xij	*	*Xij
=49-	=49-	=49-	=49-	=49-	=49-
.	.	.	.	.	.
.	.	2C/	Kẏ-	.	.
2r	.	2.F/	-ri-	.	.
*	*ij	*	*	*	*
1D\	Kẏ-	.	.	.	.
.	.	4Gny/	.	.	.
=50-	=50-	=50-	=50-	=50-	=50-
.	.	4A/	-e	1rA	.
.	.	4B\	.	.	.
2C/	-ri-	2cny\	.	.	.
2F\	-e	2A/	.	2rF	.
2G\	e-	2B\	e-	1G/	Kẏ-
=51-	=51-	=51-	=51-	=51-	=51-
1E	-lei-	1G	-lei-	.	.
!	!	!	!	!LO:TX:t=P:problem=kreska pseudotaktowa	!
.	.	.	.	2E/	-ri-
1D	-son	1A	-ſon	2F/	-e
*	*Xij	*	*	*	*
.	.	.	.	4D/	e-
!	!	!	!	!LO:TX:t=P:problem=kreska pseudotaktowa	!
.	.	.	.	4E/	.
=52-	=52-	=52-	=52-	=52-	=52-
2rBB	.	1rA	.	4F/	.
.	.	.	.	4G/	.
1AA	Kẏ-	.	.	4A/	.
!	!	!	!	!LO:TX:t=P:problem=kreska pseudotaktowa	!
.	.	.	.	4B\	.
.	.	2rF	.	2c\	.
*	*	*	*ij	*	*
2GG/	-ri-	1G/	Kẏ-	2.B\	.
=53-	=53-	=53-	=53-	=53-	=53-
2C/	-e	.	.	.	.
.	.	.	.	4G/	.
*custos:BB-	*	*	*	*	*
2D/	.	2F/	-ri-	1A	-lei-
!LO:PB:g=original	!	!	!	!	!
!LO:TX:t=P:problem=♭ above	!	!	!	!	!
1BB-X	elei-	2F/	-e	.	.
!	!	!	!	!LO:TX:t=P:problem=kreska pseudotaktowa	!
.	.	2D/	e-	2G/	.
=54-	=54-	=54-	=54-	=54-	=54-
1AA	-son	1E	-lei-	0A	-son
2r	.	2D/	-son	.	.
*	*ij	*	*	*	*
1D\	Kẏ-	1A\	Kẏ-	.	.
=55-	=55-	=55-	=55-	=55-	=55-
.	.	.	.	1rA	.
*	*	*custos:A	*	*	*
!	!	!LO:TX:b:t=P:problem=♯ below	!	!	!
2E\	-ri-	2G#X/	-rie	.	.
!	!	!LO:LB:g=original	!	!	!
2F\	-e	2A/	e-	2rF	.
*	*	*	*	*	*ij
2D/	e-	2F/	-lei-	1A\	Kẏ-
=56-	=56-	=56-	=56-	=56-	=56-
2.E\	-lei-	2E/	-son	.	.
*	*	*	*Xij	*	*
*	*	*	*	*custos:A	*
!	!	!	!	!LO:TX:t=P:problem=kreska pseudotaktowa	!
!	!	!	!	!LO:TX:b:t=P:problem=♯ below	!
.	.	1e	Kẏ-	2G#X/	-ri-
4D/	.	.	.	.	.
!LO:TX:b:t=P:problem=♯ below	!	!	!	!LO:LB:g=original	!
2C#X/	.	.	.	4A/	-e
.	.	.	.	4Gny/	.
2D/	.	2A/	-ri-	4F/	.
!	!	!	!	!LO:TX:t=P:problem=kreska pseudotaktowa	!
.	.	.	.	4E/	.
=57-	=57-	=57-	=57-	=57-	=57-
2GG/	.	2B-X\	-e	1D	e-
2BB-X/	.	2Gny/	e-	.	.
!	!	!	!	!LO:TX:t=P:problem=kreska pseudotaktowa	!
1AA	-son	1A	-lei-	1E	-lei-
*	*Xij	*	*	*	*
=58-	=58-	=58-	=58-	=58-	=58-
2rBB	.	2A/	-son	2D/	-son
*	*	*	*ij	*	*Xij
1D	Kẏ-	1A	Kẏ-	1F	Kẏ-
!LO:TX:b:t=P:problem=♯ below	!	!	!	!LO:TX:t=P:problem=kreska pseudotaktowa	!
2C#X/	-ri-	2A/	-ri-	2E/	-ri-
=59-	=59-	=59-	=59-	=59-	=59-
!	!	!	!	!LO:TX:b:t=P:problem=♯ below	!
2D/	-e	2A/	-e	2F#X/	-e
!	!	!	!	!LO:TX:t=P:problem=kreska pseudotaktowa	!
2GG/	e-	2B-X\	e-	2G/	e-
1AA	-lei-	1A	-lei-	1E	-lei-
=60-	=60-	=60-	=60-	=60-	=60-
2BB-X/	-son	2F/	-son	2D/	-son
*	*	*	*Xij	*	*
*	*ij	*	*	*	*ij
!	!	!LO:TX:t=P:problem=♭ above	!	!	!
2GG/	Kẏ-	1B-X	Kẏ-	1G	Kẏ-
2.D/	-ri-	.	.	.	.
!	!	!	!	!LO:TX:t=P:problem=kreska pseudotaktowa	!
!	!	!	!	!LO:TX:b:t=P:problem=♯ below	!
.	.	2A/	-ri-	2F#X/	ri-
*custos:BB-	*	*	*	*	*
4Cny/	.	.	.	.	.
!LO:LB:g=original	!	!	!	!	!
=61-	=61-	=61-	=61-	=61-	=61-
!LO:TX:t=P:problem=♭ above	!	!	!	!	!
2BB-X/	-e	2G/	-e	2G/	-e
!	!	!LO:TX:b:t=P:problem=♯ below	!	!	!
2AA/	e-	2F#X/	e-	2A/	e-
1GG	-lei-	1.G	-lei-	1B-X	-lei-
=62-	=62-	=62-	=62-	=62-	=62-
0Dl;;	-son	.	.	0Al	-son
*	*Xij	*	*	*	*Xij
.	.	4F#/	.	.	.
.	.	4E/	.	.	.
!	!	!LO:TX:b:t=P:problem=♯ below	!	!	!
.	.	1F#Xl;	-son.	.	.
==	==	==	==	==	==
*-	*-	*-	*-	*-	*-
!!!system-decoration: [s1,s2,s3]
!!!RDF**kern: < = below
!!!RDF**kern: l = terminal long
!!!ENC: Marta Lawrence
!!!END: 2021-03-22
!!!ENC: Andrzej Kubiczek
!!!END: 2021-03-09
